theme-base/src/main/assets/themes/mapsforgeV3/base/osmc/frg_shell.svg

<svg enable-background="new 0 0 24 24" height="24" viewBox="0 0 24 24" width="24" xmlns="http://www.w3.org/2000/svg"><path d="m9.889 3.408s1.767-1.116 2.288-1.098c.521.019 2.347 1.173 2.347 1.173l2.038.027-.028.886-.456.036 3.79 2.458-.448.895-4.161-2.682 5.948 6.647-.549.65-6.098-6.571 5.641 10.762-.763.409-5.735-10.744 3.353 13.873-.819.203-3.548-13.759-.159 15.118h-.875l.112-15.043-3.836 13.76-.818-.196 3.621-14.058-6.152 10.92-.783-.502 6.043-10.855-6.416 6.46-.633-.596 6.33-6.553-4.338 2.373-.457-.791 3.873-2.271-.383-.019v-.977z" fill="#e9bf1e" stroke="#e9bf1e" stroke-width="2"/></svg>

<?xml version="1.0" encoding="iso-8859-1"?>
<!-- Generator: Adobe Illustrator 14.0.0, SVG Export Plug-In . SVG Version: 6.00 Build 43363)  -->
<!DOCTYPE svg PUBLIC "-//W3C//DTD SVG 1.1//EN" "http://www.w3.org/Graphics/SVG/1.1/DTD/svg11.dtd">
<svg version="1.1" id="Vrstva_1" xmlns="http://www.w3.org/2000/svg" xmlns:xlink="http://www.w3.org/1999/xlink" x="0px" y="0px"
	 width="24px" height="24px" viewBox="0 0 24 24" style="enable-background:new 0 0 24 24;" xml:space="preserve">
<g>
	<path id="path2030_2_" style="fill:#E9BF1E;stroke:#E9BF1E;stroke-width:2;" d="M9.889,3.408c0,0,1.767-1.116,2.288-1.098
		c0.521,0.019,2.347,1.173,2.347,1.173l2.038,0.027l-0.028,0.886l-0.456,0.036l3.79,2.458l-0.448,0.895l-4.161-2.682l5.948,6.647
		L20.658,12.4l-6.098-6.571l5.641,10.762L19.438,17L13.703,6.256l3.353,13.873l-0.819,0.203L12.689,6.573L12.53,21.691h-0.875
		l0.112-15.043l-3.836,13.76l-0.818-0.196l3.621-14.058l-6.152,10.92l-0.783-0.502L9.842,5.717l-6.416,6.46l-0.633-0.596l6.33-6.553
		L4.785,7.401L4.328,6.61l3.873-2.271L7.818,4.32V3.343L9.889,3.408z"/>
</g>
</svg>
